modules/themify-icons/icons/layout-cta-center.svg

<?xml version="1.0" encoding="utf-8"?>
<!-- Generated by IcoMoon.io -->
<!DOCTYPE svg PUBLIC "-//W3C//DTD SVG 1.1//EN" "http://www.w3.org/Graphics/SVG/1.1/DTD/svg11.dtd">
<svg version="1.1" xmlns="http://www.w3.org/2000/svg" xmlns:xlink="http://www.w3.org/1999/xlink" width="17" height="17" viewBox="0 0 17 17">
<g>
</g>
	<path d="M14 8h-11v-1h11v1zM17 3v11h-17v-11h17zM16 4h-15v9h15v-9zM6.357 11h4.286v-2h-4.286v2z" fill="#000000" />
</svg>

<svg xmlns="http://www.w3.org/2000/svg" width="17" height="17" viewBox="0 0 17 17"><path d="M14 8H3V7h11v1zm3-5v11H0V3h17zm-1 1H1v9h15V4zm-9.643 7h4.286V9H6.357v2z"/></svg>
